!!!COM: Palestrina, Giovanni Perluigi da
!!!OPR: Veni sponsa Christi
!!!OTL: Agnus I
**kern	**kern	**kern	**kern
*ICvox	*ICvox	*ICvox	*ICvox
*Ibass	*Itenor	*Icalto	*Icant
!Bassus	!Tenor	!Altus	!Cantus
*clefF4	*clefGv2	*clefG2	*clefG2
*k[]	*k[]	*k[]	*k[]
*G:mix	*G:mix	*G:mix	*G:mix
*M4/2	*M4/2	*M4/2	*M4/2
=1	=1	=1	=1
0r	0r	0r	1dd
.	.	.	1b
=2	=2	=2	=2
0r	0r	1g	1dd
.	.	1e	1ee
=3	=3	=3	=3
0r	0r	1g	2dd
.	.	.	1ee
.	.	1a	.
.	.	.	4dd
.	.	.	4cc
=4	=4	=4	=4
0r	0r	2g	2b
.	.	1a	4a
.	.	.	4b
.	.	.	4cc
.	.	.	4dd
.	.	4g	[2ee
.	.	4f	.
=5	=5	=5	=5
0r	1r	2e	4ee]
.	.	.	4cc
.	.	4d	2.ff
.	.	4e	.
.	1d	4f	.
.	.	4g	4ee
.	.	[2a	4dd
.	.	.	4cc
=6	=6	=6	=6
0r	1B	4a]	2dd
.	.	4g	.
.	.	1g	2b
.	1d	.	1a
.	.	2f#	.
=7	=7	=7	=7
1r	1e	[0g	2g
.	.	.	1cc
1G	2d	.	.
.	[2e	.	2b
=8	=8	=8	=8
1E	2e]	1g]	1ee
.	4d	.	.
.	4c	.	.
1G	1B	2r	2dd
.	.	2g	[2ee
=9	=9	=9	=9
1A	1c	2e	2ee]
.	.	2f	4dd
.	.	.	4cc
2G	2d	4g	2b
.	.	4f	.
[2A	4c	4e	[2cc
.	4B	4d	.
=10	=10	=10	=10
2A]	2A	2c	2cc]
4G	2B	2d	4b
4F	.	.	4a
2E	2c	2e	2g
4D	2d	[2A	4f
4E	.	.	4g
=11	=11	=11	=11
4F	1c	2A]	4a
4G	.	.	4b
1A	.	2A	1cc
.	2A	2c	.
[2G	2B	2d	2b
=12	=12	=12	=12
2G]	2c	2e	1a
2F	1d	4d	.
.	.	4c	.
[1G	.	2B	1g
.	[2c	2e	.
=13	=13	=13	=13
0G]	2c]	1d	2r
.	4B	.	2gg
.	4A	.	.
.	1B	2r	1gg
.	.	2g	.
=14	=14	=14	=14
2r	4c	1g	2ee
.	4d	.	.
2c	4e	.	2ee
.	4f	.	.
1c	1g	2e	2.cc
.	.	2e	.
.	.	.	4b
=15	=15	=15	=15
2F	0r	2f	2a
2E	.	2g	2g
2.F	.	1f	2.a
4G	.	.	4b
=16	=16	=16	=16
4A	1r	1c	4cc
4B	.	.	4dd
1c	.	.	2ee
.	2r	1d	1dd
2B	2g	.	.
=17	=17	=17	=17
1c	1g	2.e	2r
.	.	.	2cc
.	.	4f	.
1c	2e	4g	1cc
.	.	4c	.
.	2e	[2cc	.
=18	=18	=18	=18
0r	2f	2cc]	2a
.	2g	2b	2b
.	1f	1a	2cc
.	.	.	2dd
=19	=19	=19	=19
0r	1c	2g	2.ee
.	.	1cc	.
.	.	.	4cc
.	[1g	.	1dd
.	.	2b	.
=20	=20	=20	=20
1.c	2g]	1cc	0ee
.	2g	.	.
.	2e	1r	.
2c	2g	.	.
=21	=21	=21	=21
2A	2f	2r	0r
2c	2e	1g	.
2B	2d	.	.
[2c	[2e	2g	.
=22	=22	=22	=22
2c]	2e]	2e	0r
2B	1d	2g	.
2.A	.	2f	.
.	[2c	2e	.
4G	.	.	.
=23	=23	=23	=23
2F	2c]	1d	1r
2G	2B	.	.
1C	2.c	2.e	2r
.	.	.	[2cc
.	4d	4f	.
=24	=24	=24	=24
0r	2e	2g	2cc]
.	1f	1a	2cc
.	.	.	2a
.	2e	2g	2cc
=25	=25	=25	=25
0r	2d	2f	2b
.	2c	2e	1a
.	1B	1d	.
.	.	.	2g#
=26	=26	=26	=26
2r	2A	2e	1a
1F	2c	1a	.
.	2d	.	2r
2F	[2f	2a	2cc
=27	=27	=27	=27
2D	4f]	2f	1dd
.	4e	.	.
2F	1d	2a	.
1E	.	1g	1ee
.	2c#	.	.
=28	=28	=28	=28
4D	1d	2.f	1ff
4E	.	.	.
4F	.	.	.
4G	.	8e	.
.	.	8d	.
4A	2r	1c	2.ee
4B	.	.	.
[2c	[2g	.	.
.	.	.	8dd
.	.	.	8cc
=29	=29	=29	=29
2c]	2g]	1G	1dd
2B	2g	.	.
1c	2e	1g	2.cc
.	2g	.	.
.	.	.	4b
=30	=30	=30	=30
4F	1.f	1r	1a
4G	.	.	.
4A	.	.	.
4B	.	.	.
1c	.	2r	1g
.	4e	[2g	.
.	4d	.	.
=31	=31	=31	=31
1.C	2.e	2g]	2r
.	.	2g	1cc
.	4f	.	.
.	4g	2e	.
.	4f	.	.
2E	4e	2g	2cc
.	4d	.	.
=32	=32	=32	=32
1F	4c	1f	2a
.	4B	.	.
.	2.A	.	2.cc
1C	.	1e	.
.	4G	.	4b
.	2c	.	[2a
=33	=33	=33	=33
0D	2B	[0d	2a]
.	4A	.	1g
.	4G	.	.
.	1A	.	.
.	.	.	2f#
=34	=34	=34	=34
0G	0B	0d]	0g
==	==	==	==
*-	*-	*-	*-
!!!CDT: 1525/^1526/-1594/2/2
!!!OCY: Italia
!!!AGN: Mass (Parody)
!!!AST: renaissance, vocal
!!!ASW: Motet 1563 (Palestrina)
!!!PWK: Masses, Book 9
!!!RNB: Cadence finals: G
!!!YOR: Le Opere Complete, v. 25, p. 30
!!!YOO: Rome, Italy: Fratelli Scalera
!!!END: 1992//
!!!EED: John Miller
!!!YEC: Copyright 2000, John Miller
!!!YEN: United States of America
!!!YEM: Rights to all derivative electronic formats reserved.
!!!YEM: Refer to licensing agreement for further details.
!!!YEM: This file must be accompanied by the licensing agreement.
!!!YEM: A copy of the licensing agreement may be found at http://www.music-cog.ohio-state.edu/HumdrumDatabases/Palestrina/license.txt
!!!EMD: converted to Humdrum by Bret Aarden
